!!!COM: Vivaldi, Antonio Lucio
!!!CDT: 1678/03/04-1741/08/28
!!!OPR: 12 Sonatas for Violin and Basso continuo
!!!OTL: Sonata in E minor, op. @{OPS}, no. @{ONM} (@{SCT})
!!!OPS: 2
!!!ONM: 9
!!!OMV: 2. Capriccio
!!!SCT: RV 16
!!!SCA: Antonio Vivaldi: Thematisch-systematisches Verzeichnis seiner Werke (Ryom-Verzeichnis)
!!!OMD: Allegro
!!!key: e
**kern	**fb	**kern
*part2	*	*part1
*staff2	*	*staff1
*ICklav	*	*ICstr
*Icemba	*	*Ivioln
*I"Basso continuo	*	*I"Violino
*I'bc	*	*I'v
*clefF4	*	*clefG2
*k[f#]	*	*k[f#]
*e:	*	*e:
*M4/4	*	*M4/4
*met(c)	*	*met(c)
*MM128	*	*MM128
=1	=1	=1
4EE/	.	16ee\LL
.	.	16bb\
.	.	16aa\
.	.	16bb\JJ
2E\	5	16gg\LL
.	.	16bb\
.	.	16ee\
.	.	16gg\JJ
.	4 2	16ff#y\LL
.	.	16bb\
.	.	16aa\
.	.	16bb\JJ
4D#X\	6	16ff#y\LL
.	.	16bb\
.	.	16b\
.	.	16bb\JJ
=2	=2	=2
16E\LL	.	8gg\L
16B\	.	.
16A\	.	8ee\J
16B\JJ	.	.
16G\LL	6	4r
16B\	.	.
16E\	.	.
16G\JJ	.	.
16F#y\LL	6#/ 4	2r
16B\	.	.
16A\	.	.
16B\JJ	.	.
16F#y\LL	.	.
16B\	.	.
16BB\	.	.
16B\JJ	.	.
=3	=3	=3
8G\L	6	16ee\LL
.	.	16bb\
8E\J	.	16aa\
.	.	16bb\JJ
2e\	5	16gg\LL
.	.	16bb\
.	.	16ee\
.	.	16gg\JJ
.	4 2	16ff#y\LL
.	.	16bb\
.	.	16aa\
.	.	16bb\JJ
[4d\	6	16ff#y\LL
.	.	16bb\
.	.	16b\
.	.	16bb\JJ
!!LO:LB:g=original
=4	=4	=4
4d\]	5 2	16ee\LL
.	.	16aa\
.	.	16gg\
.	.	16aa\JJ
[4c\	6	16ee\LL
.	.	16aa\
.	.	16a\
.	.	16aa\JJ
4c\]	4 2	16ff#y\LL
.	.	16dd\
.	.	16ff#y\
.	.	16dd\JJ
[4B\	6	16gg\LL
.	.	16bb\
.	.	16gg\
.	.	16dd\JJ
=5	=5	=5
4B\]	4 2	16ee\LL
.	.	16cc\
.	.	16ee\
.	.	16cc\JJ
2A\	6	16ff#y\LL
.	.	16aa\
.	.	16ff#y\
.	.	16cc\JJ
.	4 2	16dd\LL
.	.	16b\
.	.	16dd\
.	.	16b\JJ
[4G\	6	16ee\LL
.	.	16gg\
.	.	16ee\
.	.	16b\JJ
=6	=6	=6
4G\]	4 2	16cc\LL
.	.	16a\
.	.	16cc\
.	.	16a\JJ
2F#y\	6	16dd\LL
.	.	16a\
.	.	16dd\
.	.	16a\JJ
.	4 2	16b/LL
.	.	16g/
.	.	16b/
.	.	16g/JJ
[4E\	6	16cc/LL
.	.	16g/
.	.	16cc/
.	.	16g/JJ
=7	=7	=7
4E\]	4 2	16a/LL
.	.	16f#y/
.	.	16a/
.	.	16f#y/JJ
2D\	6	16b/LL
.	.	16f#y/
.	.	16b/
.	.	16f#y/JJ
.	4 2	16g/LL
.	.	16e/
.	.	16g/
.	.	16e/JJ
4C/	6	16a/LL
.	.	16e/
.	.	16a/
.	.	16e/JJ
!!LO:LB:g=original
=8	=8	=8
16BB\LL	#	8d#X/L
16B\	.	.
16F#y\	.	8B/J
16B\JJ	.	.
16D#X\LL	6	8r
16F#y\	.	.
16D#y\	.	8dd#X\
16F#y\JJ	.	.
16BB\LL	#	16dd#y\LL
16B\	.	16cc#X\J
16F#y\	.	8b\J
16B\JJ	.	.
16D#y\LL	6	8r
16F#y\	.	.
16D#y\	.	8ff#y\
16F#y\JJ	.	.
=9	=9	=9
16BB\LL	#	16ff#y\LL
16B\	.	16ee\J
16F#y\	.	8dd#X\J
16B\JJ	.	.
16D#X\LL	6	8r
16F#y\	.	.
16D#y\	.	8aa\
16F#y\JJ	.	.
16BB\LL	7 #	4.aa\
16B\	.	.
16F#y\	.	.
16B\JJ	.	.
16D#y\LL	6 5	.
16F#y\	.	.
16D#y\	.	16bb\LL
16BB\JJ	.	16ff#y\JJ
=10	=10	=10
8E\L	.	8gg\L
8A\J	6 5	16ff#y\L
.	.	16ee\JJ
8B\L	5 4	8.dd#X\Lt
8BB\J	#	.
.	.	16ee\Jk
4E\	.	16ee\LL
.	.	16bb\
.	.	16aa\
.	.	16bb\JJ
[4e\	.	16gg\LL
.	.	16bb\
.	.	16ee\
.	.	16gg\JJ
=11	=11	=11
4e\]	5 3	16ff#y\LL
.	.	16bb\
.	.	16aa\
.	.	16bb\JJ
[4dn\	6	16ff#y\LL
.	.	16bb\
.	.	16b\
.	.	16bb\JJ
4d\]	5 2	16ee\LL
.	.	16aa\
.	.	16gg\
.	.	16aa\JJ
[4c\	6	16ee\LL
.	.	16aa\
.	.	16a\
.	.	16aa\JJ
!!LO:PB:g=original
=12	=12	=12
4c\]	4 2	16ff#y\LL
.	.	16dd\
.	.	16ff#y\
.	.	16dd\JJ
4B\	6	16gg\LL
.	.	16b\
.	.	16gg\
.	.	16b\JJ
4c\	6 5	16a\LL
.	.	16gg\
.	.	16a\
.	.	16gg\JJ
4d\	5 3	16a\LL
.	.	16ff#y\
.	.	16a\
.	.	16ff#y\JJ
=13	=13	=13
16G\LL	.	4gg\
16G\	.	.
16D\	.	.
16G\JJ	.	.
16BB/LL	6	8r
16D/	.	.
16BB/	.	8b\
16D/JJ	.	.
16GG\LL	.	16b/LL
16G\	.	16a/J
16D\	.	8g/J
16G\JJ	.	.
16BB/LL	6	8r
16D/	.	.
16BB/	.	8dd\
16D/JJ	.	.
=14	=14	=14
16GG\LL	.	16dd\LL
16G\	.	16cc\J
16D\	.	8b\J
16G\JJ	.	.
16BB/LL	6	8r
16D/	.	.
16BB/	5nr	8ffn\
16D/JJ	.	.
16GG\LL	7nr	4.ff\
16G\	.	.
16D\	.	.
16G\JJ	.	.
16BB/LL	5nr	.
16D/	.	.
16BB/	.	16gg\LL
16GG/JJ	.	16dd\JJ
=15	=15	=15
8C\L	.	8ee\L
8F\J	6 5	16dd\L
.	.	16cc\JJ
8G/L	4	8.b\Lt
8GG/J	3	.
.	.	16cc\Jk
4C/	.	16cc\LL
.	.	16gg\
.	.	16ffn\
.	.	16gg\JJ
[4c\	.	16ee\LL
.	.	16gg\
.	.	16cc\
.	.	16ee\JJ
!!LO:LB:g=original
=16	=16	=16
4c\]	5 2	16dd\LL
.	.	16gg\
.	.	16ffn\
.	.	16gg\JJ
4B\	6	16dd\LL
.	.	16gg\
.	.	16g\
.	.	16gg\JJ
16c\LL	.	8ee\L
16G\	.	.
16Fn\	.	8cc\J
16G\JJ	.	.
16E\LL	6	[4ccc\
16G\	.	.
16C\	.	.
16E\JJ	.	.
=17	=17	=17
16D\LL	7 n	4ccc\]
16G\	.	.
16Fn\	.	.
16G\JJ	.	.
16D\LL	6 4	4bb\
16G\	.	.
16GG\	.	.
16G\JJ	.	.
8E\L	6	16ccc\LL
.	.	16gg\
8C\J	.	16ffn\
.	.	16gg\JJ
[4c\	.	16ee\LL
.	.	16gg\
.	.	16cc\
.	.	16ee\JJ
=18	=18	=18
4c\]	5 2	16dd\LL
.	.	16gg\
.	.	16ffn\
.	.	16gg\JJ
[4B\	6	16dd\LL
.	.	16gg\
.	.	16g\
.	.	16gg\JJ
4B\]	5nr 2	16cc\LL
.	.	16ff\
.	.	16ee\
.	.	16ff\JJ
[4A\	6nr	16cc\LL
.	.	16ff\
.	.	16f\
.	.	16ff\JJ
!!LO:LB:g=original
=19	=19	=19
4A\]	5 2	16b\LL
.	.	16ee\
.	.	16dd\
.	.	16ee\JJ
4G#X\	6	16b\LL
.	.	16ee\
.	.	16e\
.	.	16ee\JJ
16A\LL	.	8cc\L
16e\	.	.
16d\	.	8a\J
16e\JJ	.	.
16c\LL	6	[4aa\
16e\	.	.
16A\	.	.
16c\JJ	.	.
=20	=20	=20
16B\LL	7	4aa\]
16e\	.	.
16d\	.	.
16e\JJ	.	.
16B\LL	6#/	4gg#X\
16e\	.	.
16E\	.	.
16e\JJ	.	.
8c\L	6	16aa\LL
.	.	16ee\
8A\J	.	16dd\
.	.	16ee\JJ
[4AA/	.	16cc\LL
.	.	16ee\
.	.	16a\
.	.	16cc\JJ
=21	=21	=21
4AA/]	5 2	16b\LL
.	.	16ee\
.	.	16dd\
.	.	16ee\JJ
4GG#X/	6	16b\LL
.	.	16ee\
.	.	16e\
.	.	16ee\JJ
4AA/	5	8cc\L
.	.	8a\J
[4A\	6 #	16ff#X\LL
.	.	16aa\
.	.	16ff#y\
.	.	16cc#X\JJ
=22	=22	=22
4A\]	4#| 2	16dd#X\LL
.	.	16b\
.	.	16dd#y\
.	.	16b\JJ
2G\	6	16ee\LL
.	.	16gg\
.	.	16ee\
.	.	16b\JJ
.	4#| 2	16cc#X\LL
.	.	16a\
.	.	16cc#y\
.	.	16a\JJ
[4Fn\	6	16dd\LL
.	.	16ffn\
.	.	16dd\
.	.	16a\JJ
!!LO:LB:g=original
=23	=23	=23
4F\]	4 2	16b/LL
.	.	16g/
.	.	16b/
.	.	16g/JJ
2E\	6	16cc/LL
.	.	16g/
.	.	16cc/
.	.	16g/JJ
.	4 2	16a/LL
.	.	16f#y/
.	.	16a/
.	.	16f#y/JJ
4D#X\	6	16b/LL
.	.	16f#y/
.	.	16b/
.	.	16f#y/JJ
=24	=24	=24
16E\LL	.	8g/L
16B\	.	.
16A\	.	8e/J
16B\JJ	.	.
16G\LL	6	2ee\
16B\	.	.
16E\	.	.
16G\JJ	.	.
16F#y\LL	7	.
16B\	.	.
16A\	.	.
16B\JJ	.	.
16F#y\LL	6#/	4dd#X\
16B\	.	.
16BB\	.	.
16B\JJ	.	.
=25	=25	=25
8G\L	6	16ee\LL
.	.	16bb\
8E\J	.	16aa\
.	.	16bb\JJ
2e\	3	16gg\LL
.	.	16bb\
.	.	16ee\
.	.	16gg\JJ
.	5 2	16ff#y\LL
.	.	16bb\
.	.	16aa\
.	.	16bb\JJ
4d#X\	6	16ff#y\LL
.	.	16bb\
.	.	16b\
.	.	16bb\JJ
=26	=26	=26
16e\LL	.	8gg\L
16e\	.	.
16d#X\	.	8ee\J
16e\JJ	.	.
16B\LL	6 4	8r
16e\	.	.
16G\	6	8b\
16B\JJ	.	.
16E\LL	.	8b/L
16e\	.	.
16d#y\	.	8g/J
16e\JJ	.	.
16B\LL	6 4	8r
16e\	.	.
16G\	6	8ee\
16B\JJ	.	.
!!LO:LB:g=original
=27	=27	=27
16E\LL	.	8ee\L
16e\	.	.
16d#X\	.	8b\J
16e\JJ	.	.
16B\LL	6 4	8r
16G\	.	.
16E\	.	8gg\
16G\JJ	.	.
4.AA#X/	7 5	16gg\LL
.	.	16ee\
.	.	16cc#X\
.	.	16ee\JJ
.	.	16a#X\LL
.	.	16cc#y\
8AA#y/	6 5	16f#y\
.	.	16ee\JJ
=28	=28	=28
16BB\LL	n	8dd\L
16f#y\	.	.
16e\	.	8b\J
16f#y\JJ	.	.
16d\LL	6	2bb\
16f#y\	.	.
16B\	.	.
16d\JJ	.	.
16c#X\LL	7	.
16f#y\	.	.
16e\	.	.
16f#y\JJ	.	.
16c#y\LL	6#/	4aa#X\
16f#y\	.	.
16F#y\	.	.
16f#y\JJ	.	.
=29	=29	=29
8d#X\L	6	16bb\LL
.	.	16bb\
8B\J	.	16aan\
.	.	16bb\JJ
2e\	3	16gg\LL
.	.	16bb\
.	.	16ee\
.	.	16gg\JJ
.	5 2	16ff#y\LL
.	.	16bb\
.	.	16aa\
.	.	16bb\JJ
4d#y\	6	16ff#y\LL
.	.	16bb\
.	.	16b\
.	.	16bb\JJ
!!LO:LB:g=original
=30	=30	=30
16e\LL	#	8gg#X\L
16e\	.	.
16dn\	.	8ee\J
16e\JJ	.	.
16c#X\LL	6	2aa\
16e\	.	.
16A\	.	.
16c#y\JJ	.	.
16B\LL	7 3	.
16e\	.	.
16d\	.	.
16e\JJ	.	.
16B\LL	6#/	4gg#y\
16e\	.	.
16E\	.	.
16e\JJ	.	.
=31	=31	=31
8c#X\L	6	16aa\LL
.	.	16aa\
8A\J	.	16ggn\
.	.	16aa\JJ
2d\	3	16ff#y\LL
.	.	16aa\
.	.	16dd\
.	.	16ff#y\JJ
.	5 2	16ee\LL
.	.	16aa\
.	.	16gg\
.	.	16aa\JJ
4c#y\	6	16ee\LL
.	.	16aa\
.	.	16a\
.	.	16aa\JJ
=32	=32	=32
16d\LL	.	8ff#y\L
16d\	.	.
16cn\	.	8dd\J
16d\JJ	.	.
16B\LL	6	2gg\
16d\	.	.
16G\	.	.
16B\JJ	.	.
16A\LL	7	.
16d\	.	.
16c\	.	.
16d\JJ	.	.
16A\LL	6	4ff#y\
16d\	.	.
16D\	.	.
16d\JJ	.	.
=33	=33	=33
8B\L	6	16gg\LL
.	.	16gg\
8G\J	7nr	16ffn\
.	.	16gg\JJ
2c\	3	16ee\LL
.	.	16gg\
.	.	16cc\
.	.	16ee\JJ
.	5 2	16dd\LL
.	.	16gg\
.	.	16ff\
.	.	16gg\JJ
4B\	6	16dd\LL
.	.	16gg\
.	.	16g\
.	.	16gg\JJ
!!LO:LB:g=original
=34	=34	=34
4c\	6	16ee\LL
.	.	16aa\
.	.	16gg\
.	.	16aa\JJ
4c#X\	6	16ee\LL
.	.	16aa\
.	.	16a\
.	.	16aa\JJ
4d\	6	16ff#y\LL
.	.	16bb\
.	.	16aa\
.	.	16bb\JJ
4d#X\	6	16ff#y\LL
.	.	16bb\
.	.	16b\
.	.	16bb\JJ
=35	=35	=35
16e\LL	.	4gg\
16B\	.	.
16A\	.	.
16B\JJ	.	.
16G\LL	6	2ee\
16B\	.	.
16E\	.	.
16G\JJ	.	.
16F#y\LL	7	.
16B\	.	.
16A\	.	.
16B\JJ	.	.
16F#y\LL	6#/	4dd#X\
16B\	.	.
16BB\	.	.
16B\JJ	.	.
=36	=36	=36
8G\L	6	16ee\LL
.	.	16bb\
8E\J	.	16aa\
.	.	16bb\JJ
4r	.	16gg\LL
.	.	16bb\
.	.	16ee\
.	.	16gg\JJ
4BB/	#	16ff#y\LL
.	.	16bb\
.	.	16ff#y\
.	.	16bb\JJ
4r	.	16dd#X\LL
.	.	16ff#y\
.	.	16dd#y\
.	.	16ff#y\JJ
=37	=37	=37
4BB/	.	16b\LL
.	.	16bb\
.	.	16ff#y\
.	.	16bb\JJ
4r	.	16dd#X\LL
.	.	16ff#y\
.	.	16dd#y\
.	.	16ff#y\JJ
4BB/	.	16b\LL
.	.	16bb\
.	.	16ff#y\
.	.	16bb\JJ
4r	.	16dd#y\LL
.	.	16ff#y\
.	.	16dd#y\
.	.	16ff#y\JJ
!!LO:LB:g=original
=38	=38	=38
16BB\LL	.	4b\
16B\	.	.
16F#y\	.	.
16B\JJ	.	.
16D#X\LL	6	8r
16F#y\	.	.
16D#y\	.	8dd#X\
16F#y\JJ	.	.
16BB\LL	#	16dd#y\LL
16B\	.	16cc#X\J
16F#y\	.	8b\J
16B\JJ	.	.
16D#y\LL	6	8r
16F#y\	.	.
16D#y\	.	8ff#y\
16F#y\JJ	.	.
=39	=39	=39
16BB\LL	#	16ff#y\LL
16B\	.	16ee\J
16F#y\	.	8dd#X\J
16B\JJ	.	.
16D#X\LL	6	8r
16F#y\	.	.
16D#y\	5	8aa\
16F#y\JJ	.	.
16BB\LL	7 #	4.aa\
16B\	.	.
16F#y\	.	.
16B\JJ	.	.
16D#y\LL	6	.
16F#y\	.	.
16D#y\	.	16bb\LL
16BB\JJ	.	16ff#y\JJ
=40	=40	=40
8E\L	.	8gg\L
8A\J	6 5	16ff#y\L
.	.	16ee\JJ
8B\L	4	8.dd#X\Lt
8BB\J	#	.
.	.	16ee\Jk
16E\LL	.	4ee\
16G\	.	.
16E\	.	.
16G\JJ	.	.
16D#X\LL	6	8r
16F#y\	.	.
16D#y\	.	16bb\LL
16BB\JJ	.	16aa\JJ
=41	=41	=41
8E\L	.	8gg\L
8A\J	6 5	16ff#y\L
.	.	16ee\JJ
8B\L	5 4	8.dd#X\Lt
8BB\J	#	.
.	.	16ee\Jk
2E\;	.	2ee\;
==	==	==
*-	*-	*-
!!!SMS: RV 16 / Estienne Roger, Amsterdam [facs.]
!!!ENC: Fran Bennion; rev. 04/21 E. Correia
!!!END: 2004/12/14
!!!ONB: Converted from MuseData with musedata2hum on Sat May 11 12:07:52 2024
!!!YEM: (C) 2004, 2004 Center for Computer Assisted Research in the Humanities.
!!!system-decoration: [(s1,s2)]
!!!URL-info: https://wiki.ccarh.org/wiki/MuseData:_Antonio_Vivaldi#Op._2:_Sonate_a_violino_e_basso_per_il_cembalo
!!!URL-pdf: https://pdf.musedata.org/vivaldi-op02-no09.pdf#page=2 MuseData edition
!!!URL-pdf: http://conquest.imslp.info/files/imglnks/usimg/b/b7/IMSLP99075-PMLP183164-Vivaldi_-_Sonatas_Op2.pdf#page=32 Estienne Roger Amsterdam: Estienne Roger, No.2, n.d.[1711].
!!!URL-youtube: https://www.youtube.com/watch?v=SiijZmW9jKM&t=3506s L'Arte dell'Arco
!!!title: @{OTL}, mov. @{OMV}
!!!filter-chint: chint -mid
!!!EEV: 2024/05/11
!!!source-file: https://bitbucket.org/musedata/vivaldi/src/master/roger/op2/no09/stage2/02/01
!!!source-file: https://bitbucket.org/musedata/vivaldi/src/master/roger/op2/no09/stage2/02/02
